frontend/public/svg/interface/heart.svg

<svg width="143" height="131" viewBox="0 0 143 131" fill="none" xmlns="http://www.w3.org/2000/svg">
<g clip-path="url(#clip0)">
<path d="M67.3959 125.449L68.1194 125.669C70.78 126.474 73.2927 127.233 74.949 130.561C74.9909 130.645 75.0497 130.719 75.122 130.779C75.1942 130.838 75.2782 130.882 75.3679 130.907C75.4247 130.922 75.4828 130.929 75.5415 130.929C75.6699 130.929 75.7952 130.892 75.903 130.821C77.1242 130.018 78.2744 129.291 79.3665 128.6C81.6546 127.152 83.631 125.903 85.5209 124.447C92.2994 119.338 98.4848 113.475 103.96 106.965C111.156 98.2636 118.597 89.2656 125.602 79.8467C129.986 73.9503 133.723 67.3678 136.882 61.663C140.042 55.8907 141.923 49.4951 142.396 42.9172C143.253 32.1074 140.707 22.3639 134.828 13.9577C128.286 4.60191 119.585 0.0455045 108.986 0.396793C97.0287 0.80022 86.5129 5.41512 77.7296 14.1139C77.3036 14.5557 76.9092 15.0275 76.5497 15.5256C75.8668 16.425 75.2188 17.2788 74.2435 17.617C63.9983 7.5411 56.165 3.59962 44.4467 2.58942C32.4206 1.55185 22.6847 5.45696 15.5078 14.1903C11.9462 18.5071 8.82442 23.1754 6.19001 28.1245C0.574558 38.7407 -0.595573 50.0327 2.71755 61.6891C5.67229 72.0929 10.5991 81.8182 17.2247 90.3254C30.4714 107.388 47.3519 119.207 67.3959 125.449ZM17.7895 30.135C19.3284 27.207 21.0427 24.3766 22.9228 21.6592C27.3926 15.072 33.6922 11.7475 41.681 11.7475C42.6707 11.7475 43.6862 11.7985 44.7276 11.9006C55.3982 12.9479 63.9582 17.6946 70.1694 26.0082C70.9155 27.0067 71.7282 27.931 72.4446 28.7456C72.7364 29.078 73.0107 29.3903 73.2527 29.6765C73.3534 29.7957 73.4928 29.8751 73.6458 29.9011C76.5265 30.403 77.6909 28.8948 78.5551 27.4466C83.5432 19.0932 91.3067 14.1069 102.989 11.7555C105.755 11.2734 108.577 11.2019 111.364 11.5435C115.789 11.9652 119.585 14.1611 122.648 18.0683C126.138 22.5501 128.207 27.9912 128.582 33.6798C129.2 40.2551 128.004 46.8749 125.127 52.8066C122.959 57.4039 120.492 61.8512 117.741 66.1184C112.633 73.717 107.177 81.2714 101.903 88.5767L100.069 91.1185C96.1412 96.5645 92.0787 102.054 88.1511 107.363C86.7337 109.278 85.3176 111.194 83.9021 113.112C83.2915 113.939 82.6557 114.75 81.9831 115.609C81.7611 115.892 81.5358 116.18 81.3067 116.474C79.4226 115.692 77.5882 114.927 75.7894 114.18C71.5436 112.417 67.4953 110.735 63.4566 109.028C52.278 104.38 42.1525 97.4841 33.6954 88.7612C25.0244 79.7528 19.0146 70.1155 15.3239 59.2979C11.9585 49.4305 12.7646 39.8909 17.7895 30.135Z" fill="black"/>
</g>
<defs>
<clipPath id="clip0">
<rect width="142" height="131" fill="white" transform="translate(0.777344)"/>
</clipPath>
</defs>
</svg>

<svg xmlns="http://www.w3.org/2000/svg" width="143" height="131" fill="none" viewBox="0 0 143 131"><g clip-path="url(#a)"><path fill="#000" d="m67.396 125.449.723.22c2.661.805 5.174 1.564 6.83 4.892a.67.67 0 0 0 .419.346.68.68 0 0 0 .535-.086c1.221-.803 2.371-1.53 3.463-2.221 2.289-1.448 4.265-2.697 6.155-4.153a112.8 112.8 0 0 0 18.439-17.482c7.196-8.701 14.637-17.7 21.642-27.118 4.384-5.897 8.121-12.48 11.28-18.184a45.9 45.9 0 0 0 5.514-18.746c.857-10.81-1.689-20.553-7.568-28.96C128.286 4.603 119.585.047 108.986.398 97.029.8 86.513 5.415 77.73 14.114q-.64.663-1.18 1.412c-.683.899-1.331 1.753-2.306 2.091C63.997 7.541 56.165 3.6 44.447 2.589 32.42 1.552 22.685 5.457 15.507 14.19A83.7 83.7 0 0 0 6.19 28.125C.575 38.74-.596 50.033 2.718 61.689a83.9 83.9 0 0 0 14.507 28.636c13.246 17.063 30.127 28.882 50.17 35.124M17.79 30.135a82 82 0 0 1 5.133-8.476c4.47-6.587 10.77-9.911 18.758-9.911q1.485 0 3.047.153c10.67 1.047 19.23 5.794 25.441 14.107.746.999 1.56 1.923 2.276 2.738.291.332.566.644.808.93.1.12.24.2.393.225 2.88.502 4.045-1.006 4.91-2.454 4.987-8.354 12.75-13.34 24.433-15.691a28.6 28.6 0 0 1 8.375-.213c4.425.422 8.221 2.618 11.284 6.525a28.46 28.46 0 0 1 5.934 15.612 36.1 36.1 0 0 1-3.455 19.127 115 115 0 0 1-7.386 13.311c-5.108 7.599-10.564 15.153-15.838 22.459l-1.834 2.541c-3.928 5.447-7.99 10.936-11.918 16.245a5145 5145 0 0 0-4.249 5.749c-.61.827-1.246 1.638-1.919 2.497l-.676.865c-1.884-.782-3.719-1.547-5.518-2.294a2115 2115 0 0 1-12.332-5.152 89.1 89.1 0 0 1-29.762-20.267c-8.67-9.008-14.68-18.645-18.371-29.463-3.365-9.867-2.56-19.407 2.466-29.163"/></g><defs><clipPath id="a"><path fill="#fff" d="M.777 0h142v131h-142z"/></clipPath></defs></svg>
